X:1
T:The Poor Whore's Complaint
M:6/8
L:1/8
K:C
 G| CDEF-E D|E-C E G2 E/2E/2|F-G A GFE| E3 D2 G|C-D E F/2F/2 ED|E-D C c2 B|\
 ABG ^FGA| A3 G2 G| GAB c2- B| AG=F E2 B| cBA ^GAB| B3 A2 z| =GAB cGA|\
G-F E D2 D| CE-FG-E A| D3 C2|| D3 C2||
